X: 27
T: Dumond's Jig
M: 6/8
L: 1/8
G: Hopkinson's Favourite
Q: 1/4=100
R: Jig
K: Dm
|:"Dm"d^cd A2G|F2E"Am7"D2C|"Dm"D2E"Gm"F2F|"C7"GFG"F"A3|"F"fef"C7"c2B|"F"A2GF2C|
"F"F2A"Gm"G2F|"C7"GFE"F"F3:||:"Am7"ABA"Dm"d2A|d2A"Am7"d2e|"dm"fed "C"efg|
"Gm"fed"A"a3|"Dm"ABAd2A|d2A"C"d2e|"Gm"fed gab|"A7"f2e"Dm"d3:|
